X:1
T:Silver Spire, The
M:4/4
L:1/8
K:D
D2 FE DFAc|dcde fdAF|G2 BG FADF|GFED CEA,C|
D3 F ADFA|dcde fdAF|G2 BG FADF|EDEF D3 C:|
A,B,CD EFGE|FDEF GABc|dcdB ABde|fdgf eABc|
d2 fd ceAc|dcdB AFDF|GdBG FEDF|EDEF D3 A:|
